X: 154
T: Walking the Floor
T: Jig, A Dorian
L: 1/16
M: 6/8
K: A Dorian
|: A2A2A2 e4d2| e2f2g2 e2d2B2| G2G2G2 d4G2| B2g2e2 d2B2G2|
 A2A2A2 e4d2| e2f2g2 e2d2B2| G2G2G2 e2d2B2| [1 B2A2G2 A6:| [2 B2A2G2 e2f2g2|]
|: a6 e4d2| g2e2e2 e2d2B2| g6 d4B2| G2g2e2 d2B2G2|
 a6 e4d2| g2e2e2 e2d2B2| G2G2G2 e2d2B2| [1 B2A2G2 e2f2g2:| [2 B2A2G2 A6|]
D: Glenn Graham/Rodney MacDonald, Traditionally Rockin', TR1
D: Jackie Dunn, Dunn to a "T", JAD-1
